X: 129
M: 6/8
L: 1/8
K: Eb
"Solo."B | !f!e6- | e2e d2d | B2B c2c | G3 G3- | G2G F2E |
E6- | Ez "Chorus."G F2E | E6- | Ez z2 :| "Solo."G | G6- | G2G =A2A| G2G =A2A |
|: "^>"[d3B3] [cA]zz |  "^>"[d3B3] [cA]zz | [e2c][dB] [c2A2][ec] | [d3-B3-] [dB]zz | "^>"[d3B3] [cA]zz |  "^>"[d3B3] [cA]zz |
[e2c2][dB] [c2A2][ec] | [BG]z [GE] [G2E2][GE] | [G2F2][GF] [G2F2][GF] | [G2E2][GE] [G2E2][GE] |
[G2G2][GG] [G2G2][GG] | [e6c6] | [f2d2] [ec] [c2A2][ec] | [BG]z [GE] [G2E2][AF] | [B2G2][AF] [G2E2][FD] | [EE]zz z2 :|


